X:1
T:Open the Windows of Heaven
T:Open the Windows of Heaven
T:Robert G. Staples
T:Robert G. Staples, 1895
T:Public Domain Courtesy of the Cyber Hymnal™
C:Robert G. Staples
Z:Public Domain
Z:Courtesy of the Cyber Hymnal™
%%score 1 ( 2 3 )
L:1/8
Q:1/4=105
M:6/8
K:C
V:1 treble 
V:2 bass 
V:3 bass 
V:1
 [EG][EG][EG] [EG][CE][EG] | [FA]3 [EG]2 [EG] | [EG][EG][EG] [Gc][FB][Ec] | [Gd]3- [Gd]2 z | %4
w: 1.~O- pen the win- dows of|Heav- en, Send|show- ers of bless- ing just|now; *|
w: 2.~O- pen the win- dows of|Hea- ven, Look|ten- der- ly on us in|love *|
w: 3.~Trust- ing, we’ll try Thee, and|prove Thee; All|ef- fort with- out Thee is|vain; *|
w: 4.~O- pen the win- dows of|Hea- ven, And|bless us for Thy dear Son’s|sake; *|
 [EG][EG][EG] [EG][CE][EG] | [FA]3 [EG]2 [EG] | [Ec][FB][Gc] [Ad][Ac][FA] | [EG]3- [EG]2 z || %8
w: Look on us, Lord, in Thy|mer- cy, While|hum- bly be- fore Thee we|bow. *|
w: Com- ing in heart- felt con-|tri- tion, We|pray Thee our sins hence re-|move. *|
w: Earth’s great- est plea- sures are|fleet- ing, Their|loss is our in- fi- nite|gain. *|
w: His blood shed for our re-|dempt- ion, Our|plea, on- ly plea we now|make. *|
"^Refrain" [Ge]4 [Gd][Gc] | [Fd]3 [FA]2 [EG] | [Ec][DB][Ec] [Fd][Ec][FA] | [EG]3- [EG]2 z | %12
w: ||||
w: Show- ers of|bless- ing, Fresh|show- ers of bless- ing we|need; *|
w: ||||
w: ||||
 [Ge]4 [Gd][Gc] | [Fd]3 [FA]2 [EG] | [EG][EG][FG] [FG][FA][FB] | [Ec]3- [Ec]2 z |] %16
w: ||||
w: Show- ers of|bless- ing, For|show- ers of bless- ing we|plead. *|
w: ||||
w: ||||
V:2
 [C,C][C,C][C,C] [C,C][C,G,][C,C] | [F,C]3 [C,C]2 [C,C] | [C,C][C,C][C,C] [E,C][D,G,][C,G,] | %3
w: ~ ~ ~ ~ ~ ~|~ ~ ~|~ ~ ~ ~ ~ ~|
 [G,B,]3- [G,B,]2 z | [C,C][C,C][C,C] [C,C][C,G,][C,C] | [F,C]3 [C,C]2 [C,C] | %6
w: ~ *|~ ~ ~ ~ ~ ~|~ ~ ~|
 [C,G,][D,G,][E,C] [F,C][F,C][F,C] | [C,C]3- [C,C]2 z || [C,C][C,C][C,C] [C,C][D,B,][E,C] | %9
w: ~ ~ ~ ~ ~ ~|~ *|Show- ers, fresh show- ers, ~|
 [F,A,]3 [F,C]2 [C,C] | [C,G,][G,,G,][G,,G,] [G,,G,][C,G,][C,C] | [C,C]3- [C,C]2 z | %12
w: ~ ~ ~|~ ~ ~ ~ ~ ~|~ *|
 [C,C][C,C][C,C] [C,C][D,B,][E,C] | [F,A,]3 [F,C]2 [G,C] | [G,C][G,C][G,B,] [G,B,]G,G, | %15
w: Show- ers, fresh show- ers, *|||
 [C,G,]3- [C,G,]2 z |] %16
w: |
V:3
 x6 | x6 | x6 | x6 | x6 | x6 | x6 | x6 || x6 | x6 | x6 | x6 | x6 | x6 | x4 G,G, | x6 |] %16

